svg/color/tslaon.svg

<svg width="40" height="40" viewBox="0 0 40 40" fill="none" xmlns="http://www.w3.org/2000/svg">
<g clip-path="url(#clip0_821_4063)">
<path d="M20 0C31.0457 0 40 8.9543 40 20C40 31.0457 31.0457 40 20 40C8.95431 40 7.90517e-06 31.0457 0 20C6.58765e-07 8.95431 8.95431 1.97595e-06 20 0Z" fill="#F5CCCC"/>
<path d="M26 6C30.4183 6 34 9.58172 34 14V26C34 30.4183 30.4183 34 26 34H14C9.58172 34 6 30.4183 6 26V14C6 9.58172 9.58172 6 14 6H26Z" fill="#CC0000"/>
<g clip-path="url(#clip1_821_4063)">
<path d="M20 14.7449L21.9594 12.3493C21.9594 12.3493 25.32 12.4206 28.6656 13.9754C27.809 15.2706 26.1077 15.9055 26.1077 15.9055C25.9921 14.7663 25.1941 14.4884 22.6608 14.4884L20 29.5L17.3234 14.4852C14.8059 14.4852 14.0079 14.7655 13.8915 15.9039C13.8915 15.9039 12.1926 15.2745 11.3352 13.9802C14.68 12.4245 18.0406 12.3525 18.0406 12.3525L20 14.7449L19.9968 14.7465H20V14.7449ZM20 11.6582C22.7035 11.6345 25.7997 12.0762 28.968 13.4632C29.3915 12.6969 29.5 12.3588 29.5 12.3588C26.0365 10.9845 22.793 10.5119 20 10.5C17.207 10.5119 13.9635 10.9829 10.5 12.3596C10.5 12.3596 10.6544 12.7752 11.032 13.4648C14.2002 12.0746 17.2965 11.636 20 11.6558V11.6582Z" fill="white"/>
</g>
</g>
<defs>
<clipPath id="clip0_821_4063">
<rect width="40" height="40" fill="white"/>
</clipPath>
<clipPath id="clip1_821_4063">
<rect width="20" height="20" fill="white" transform="translate(10 10)"/>
</clipPath>
</defs>
</svg>

<svg xmlns="http://www.w3.org/2000/svg" width="40" height="40" fill="none" viewBox="0 0 40 40"><g clip-path="url(#tslaon_svg-a)"><path fill="#F5CCCC" d="M20 0c11.046 0 20 8.954 20 20s-8.954 20-20 20S0 31.046 0 20 8.954 0 20 0"/><path fill="#C00" d="M26 6a8 8 0 0 1 8 8v12a8 8 0 0 1-8 8H14a8 8 0 0 1-8-8V14a8 8 0 0 1 8-8z"/><g clip-path="url(#tslaon_svg-b)"><path fill="#fff" d="m20 14.745 1.96-2.396s3.36.072 6.706 1.626c-.857 1.296-2.558 1.93-2.558 1.93-.116-1.139-.914-1.417-3.447-1.417L20 29.5l-2.677-15.015c-2.517 0-3.315.28-3.431 1.419 0 0-1.7-.63-2.557-1.924 3.345-1.556 6.706-1.628 6.706-1.628zl-.003.002H20zm0-3.087c2.703-.024 5.8.418 8.968 1.805.424-.766.532-1.104.532-1.104A26 26 0 0 0 20 10.5a25.9 25.9 0 0 0-9.5 1.86s.154.415.532 1.105c3.168-1.39 6.265-1.829 8.968-1.81z"/></g></g><defs><clipPath id="tslaon_svg-a"><path fill="#fff" d="M0 0h40v40H0z"/></clipPath><clipPath id="tslaon_svg-b"><path fill="#fff" d="M10 10h20v20H10z"/></clipPath></defs></svg>
